X:1
T:Kirstan's Thursday Lullabye  "copyright 1996"
M:3/4
L:1/8
Q:80
C:Anne M. Brown - March 14, 1996
S:Slow Air - MM=80
K:HP
e2 | \
{g}f3A{GAG}A2 | \
{gfg}f3A{GAG}A2 | \
{gef}e3d{g}cd |
{gef}e3A{GAG}A2 | \
{g}f3A{GAG}Ag | \
{fg}f3A{g}df |
{gef}e3a{gcd}cB | \
{G}A3{g}A{a}ge | \
{gefe}f3a{f}ge |
{gefe}f3d{G}df | \
{gef}e3d{g}cd | \
{gef}e3{a}g{f}ge |
{gefe}f3a{f}ge | \
{gefe}f3d{G}df | \
{gef}e3Aae |
{Gdc}d4|]
